src/assets/TPsIcon.svg

<svg width="56" height="56" viewBox="0 0 56 56" fill="none" xmlns="http://www.w3.org/2000/svg">
<mask id="path-1-inside-1_283_6621" fill="white">
<path fill-rule="evenodd" clip-rule="evenodd" d="M12.6875 28.3281H7.21875C5.57812 28.3281 5.57812 25.7031 7.21875 25.7031H12.6875C14.3281 25.7031 14.3281 28.3281 12.6875 28.3281ZM37.8438 54.6875H14.5469C12.3594 54.6875 10.6094 52.9375 10.6094 50.75V34.5625L7.875 32.5938H4.375C1.96875 32.5938 0 30.625 0 28.3281V21.2188C0 18.8125 1.96875 16.8438 4.375 16.8438H10.6094V5.25C10.6094 3.0625 12.3594 1.3125 14.5469 1.3125H37.8438C40.0312 1.3125 41.7812 3.0625 41.7812 5.25V14.4375C42.4375 14.5469 43.2031 14.9844 43.5312 15.6406L50.75 28.1094C51.5156 29.5312 50.8594 31.5 49.3281 31.5L41.7812 31.7188V50.75C41.7812 52.9375 40.0312 54.6875 37.8438 54.6875ZM13.2344 36.4219V43.75H39.1562V38.8281L35 34.3438C31.3906 36.3125 27.125 33.0312 28.2188 28.9844C28.5469 27.7812 29.3125 26.6875 30.4062 26.1406L34.7812 23.625L39.1562 16.4062V12.25H13.2344V16.8438H15.5312C17.9375 16.8438 19.9062 18.8125 19.9062 21.2188V28.3281C19.9062 30.625 18.0469 32.5938 15.6406 32.5938L16.4062 35.875C16.7344 37.0781 15.4219 37.9531 14.4375 37.2969L13.2344 36.4219ZM13.2344 46.375V50.75C13.2344 51.4062 13.7812 52.0625 14.5469 52.0625H37.8438C38.6094 52.0625 39.1562 51.4062 39.1562 50.75V46.375H13.2344ZM39.1562 35V31.9375L37.2969 33.0312L39.1562 35ZM41.5625 17.5L36.8594 25.2656C36.6406 25.7031 35.875 26.0312 35.3281 26.3594L37.4062 29.9688C39.0469 28.9844 38.5 29.2031 40.4688 29.0938L48.2344 28.9844L41.5625 17.5ZM39.1562 9.625V5.25C39.1562 4.59375 38.6094 3.9375 37.8438 3.9375H14.5469C13.7812 3.9375 13.2344 4.59375 13.2344 5.25V9.625H39.1562ZM34.0156 50.5312H32.375C30.625 50.5312 30.625 47.9062 32.375 47.9062H34.0156C35.7656 47.9062 35.7656 50.5312 34.0156 50.5312ZM20.0156 50.5312H18.375C16.625 50.5312 16.625 47.9062 18.375 47.9062H20.0156C21.7656 47.9062 21.7656 50.5312 20.0156 50.5312ZM28.4375 8.09375H23.9531C22.2031 8.09375 22.2031 5.46875 23.9531 5.46875H28.4375C30.1875 5.46875 30.1875 8.09375 28.4375 8.09375ZM50.3125 21.4375C49 21.4375 48.4531 19.5781 49.6562 18.9219L51.625 17.8281C53.0469 16.9531 54.3594 19.25 52.9375 20.125C52.1719 20.5625 50.8594 21.4375 50.3125 21.4375ZM47.9062 18.2656C47.0312 18.2656 46.4844 17.5 46.5938 16.7344L47.0312 13.6719C47.3594 12.0312 49.9844 12.4688 49.6562 14.1094L49.1094 17.1719C49 17.7188 48.4531 18.2656 47.9062 18.2656ZM54.6875 26.1406C54.25 26.1406 51.9531 25.2656 51.4062 25.0469C50.75 24.8281 50.3125 24.0625 50.6406 23.2969C50.8594 22.6406 51.625 22.3125 52.2812 22.5312L55.125 23.625C56.5469 24.1719 56.1094 26.1406 54.6875 26.1406ZM33.0312 27.6719C32.0469 28.2188 31.0625 28.5469 30.7344 29.6406C30.2969 31.5 32.2656 32.9219 33.7969 32.0469L35.1094 31.2812L33.0312 27.6719ZM4.375 19.4688C3.39062 19.4688 2.625 20.2344 2.625 21.2188V28.3281C2.625 29.2031 3.39062 29.9688 4.375 29.9688H8.3125C8.64062 29.9688 8.85938 30.0781 9.07812 30.1875L13.0156 33.0312C12.7969 32.0469 12.3594 31.1719 12.9062 30.5156C13.4531 29.75 14.4375 29.9688 15.5312 29.9688C16.5156 29.9688 17.2812 29.2031 17.2812 28.3281V21.2188C17.2812 20.2344 16.5156 19.4688 15.5312 19.4688H4.375ZM12.6875 23.7344H7.21875C5.57812 23.7344 5.57812 21.1094 7.21875 21.1094H12.6875C14.3281 21.1094 14.3281 23.7344 12.6875 23.7344Z"/>
</mask>
<path fill-rule="evenodd" clip-rule="evenodd" d="M12.6875 28.3281H7.21875C5.57812 28.3281 5.57812 25.7031 7.21875 25.7031H12.6875C14.3281 25.7031 14.3281 28.3281 12.6875 28.3281ZM37.8438 54.6875H14.5469C12.3594 54.6875 10.6094 52.9375 10.6094 50.75V34.5625L7.875 32.5938H4.375C1.96875 32.5938 0 30.625 0 28.3281V21.2188C0 18.8125 1.96875 16.8438 4.375 16.8438H10.6094V5.25C10.6094 3.0625 12.3594 1.3125 14.5469 1.3125H37.8438C40.0312 1.3125 41.7812 3.0625 41.7812 5.25V14.4375C42.4375 14.5469 43.2031 14.9844 43.5312 15.6406L50.75 28.1094C51.5156 29.5312 50.8594 31.5 49.3281 31.5L41.7812 31.7188V50.75C41.7812 52.9375 40.0312 54.6875 37.8438 54.6875ZM13.2344 36.4219V43.75H39.1562V38.8281L35 34.3438C31.3906 36.3125 27.125 33.0312 28.2188 28.9844C28.5469 27.7812 29.3125 26.6875 30.4062 26.1406L34.7812 23.625L39.1562 16.4062V12.25H13.2344V16.8438H15.5312C17.9375 16.8438 19.9062 18.8125 19.9062 21.2188V28.3281C19.9062 30.625 18.0469 32.5938 15.6406 32.5938L16.4062 35.875C16.7344 37.0781 15.4219 37.9531 14.4375 37.2969L13.2344 36.4219ZM13.2344 46.375V50.75C13.2344 51.4062 13.7812 52.0625 14.5469 52.0625H37.8438C38.6094 52.0625 39.1562 51.4062 39.1562 50.75V46.375H13.2344ZM39.1562 35V31.9375L37.2969 33.0312L39.1562 35ZM41.5625 17.5L36.8594 25.2656C36.6406 25.7031 35.875 26.0312 35.3281 26.3594L37.4062 29.9688C39.0469 28.9844 38.5 29.2031 40.4688 29.0938L48.2344 28.9844L41.5625 17.5ZM39.1562 9.625V5.25C39.1562 4.59375 38.6094 3.9375 37.8438 3.9375H14.5469C13.7812 3.9375 13.2344 4.59375 13.2344 5.25V9.625H39.1562ZM34.0156 50.5312H32.375C30.625 50.5312 30.625 47.9062 32.375 47.9062H34.0156C35.7656 47.9062 35.7656 50.5312 34.0156 50.5312ZM20.0156 50.5312H18.375C16.625 50.5312 16.625 47.9062 18.375 47.9062H20.0156C21.7656 47.9062 21.7656 50.5312 20.0156 50.5312ZM28.4375 8.09375H23.9531C22.2031 8.09375 22.2031 5.46875 23.9531 5.46875H28.4375C30.1875 5.46875 30.1875 8.09375 28.4375 8.09375ZM50.3125 21.4375C49 21.4375 48.4531 19.5781 49.6562 18.9219L51.625 17.8281C53.0469 16.9531 54.3594 19.25 52.9375 20.125C52.1719 20.5625 50.8594 21.4375 50.3125 21.4375ZM47.9062 18.2656C47.0312 18.2656 46.4844 17.5 46.5938 16.7344L47.0312 13.6719C47.3594 12.0312 49.9844 12.4688 49.6562 14.1094L49.1094 17.1719C49 17.7188 48.4531 18.2656 47.9062 18.2656ZM54.6875 26.1406C54.25 26.1406 51.9531 25.2656 51.4062 25.0469C50.75 24.8281 50.3125 24.0625 50.6406 23.2969C50.8594 22.6406 51.625 22.3125 52.2812 22.5312L55.125 23.625C56.5469 24.1719 56.1094 26.1406 54.6875 26.1406ZM33.0312 27.6719C32.0469 28.2188 31.0625 28.5469 30.7344 29.6406C30.2969 31.5 32.2656 32.9219 33.7969 32.0469L35.1094 31.2812L33.0312 27.6719ZM4.375 19.4688C3.39062 19.4688 2.625 20.2344 2.625 21.2188V28.3281C2.625 29.2031 3.39062 29.9688 4.375 29.9688H8.3125C8.64062 29.9688 8.85938 30.0781 9.07812 30.1875L13.0156 33.0312C12.7969 32.0469 12.3594 31.1719 12.9062 30.5156C13.4531 29.75 14.4375 29.9688 15.5312 29.9688C16.5156 29.9688 17.2812 29.2031 17.2812 28.3281V21.2188C17.2812 20.2344 16.5156 19.4688 15.5312 19.4688H4.375ZM12.6875 23.7344H7.21875C5.57812 23.7344 5.57812 21.1094 7.21875 21.1094H12.6875C14.3281 21.1094 14.3281 23.7344 12.6875 23.7344Z" fill="#B30000" stroke="#F6FAFF" stroke-width="0.6" mask="url(#path-1-inside-1_283_6621)"/>
<path opacity="0.3" fill-rule="evenodd" clip-rule="evenodd" d="M15.5312 16.8438C17.9375 16.8438 19.9062 18.8125 19.9062 21.2188V28.3281C19.9062 30.625 18.0469 32.5938 15.6406 32.5938L16.4062 35.875C16.7344 37.0781 15.4219 37.9531 14.4375 37.2969L13.2344 36.4219V43.75H39.1562V38.8281L35 34.3438C31.3906 36.3125 27.125 33.0312 28.2188 28.9844C28.5469 27.7812 29.3125 26.6875 30.4062 26.1406L34.7812 23.625L39.1562 16.4062V12.25H13.2344V16.8438H15.5312Z" fill="#FF2B2B"/>
<path opacity="0.3" fill-rule="evenodd" clip-rule="evenodd" d="M35.1094 31.2812L33.0312 27.6719C32.0469 28.2188 31.0625 28.5469 30.7344 29.6406C30.2969 31.5 32.2656 32.9219 33.7969 32.0469L35.1094 31.2812ZM17.2812 28.3281V21.2188C17.2812 20.2344 16.5156 19.4688 15.5312 19.4688H4.375C3.39062 19.4688 2.625 20.2344 2.625 21.2188V28.3281C2.625 29.2031 3.39062 29.9688 4.375 29.9688H8.3125C8.64062 29.9688 8.85938 30.0781 9.07812 30.1875L13.0156 33.0312C12.7969 32.0469 12.3594 31.1719 12.9062 30.5156C13.4531 29.75 14.4375 29.9688 15.5312 29.9688C16.5156 29.9688 17.2812 29.2031 17.2812 28.3281ZM12.6875 25.7031C14.3281 25.7031 14.3281 28.3281 12.6875 28.3281H7.21875C5.57812 28.3281 5.57812 25.7031 7.21875 25.7031H12.6875ZM12.6875 23.7344H7.21875C5.57812 23.7344 5.57812 21.1094 7.21875 21.1094H12.6875C14.3281 21.1094 14.3281 23.7344 12.6875 23.7344Z" fill="#FF2B2B"/>
<path opacity="0.3" fill-rule="evenodd" clip-rule="evenodd" d="M39.1562 31.9375L37.2969 33.0312L39.1562 35V31.9375Z" fill="#B30000"/>
</svg>

<svg width="56" height="56" viewBox="0 0 56 56" fill="none" xmlns="http://www.w3.org/2000/svg">
    <mask id="8akao66h8a" fill="#fff">
        <path fill-rule="evenodd" clip-rule="evenodd" d="M12.688 28.328h-5.47c-1.64 0-1.64-2.625 0-2.625h5.47c1.64 0 1.64 2.625 0 2.625zm25.156 26.36H14.547a3.921 3.921 0 0 1-3.938-3.938V34.562l-2.734-1.968h-3.5C1.969 32.594 0 30.625 0 28.328v-7.11a4.388 4.388 0 0 1 4.375-4.374h6.234V5.25a3.921 3.921 0 0 1 3.938-3.938h23.297A3.921 3.921 0 0 1 41.78 5.25v9.188c.657.109 1.422.546 1.75 1.203l7.219 12.468c.766 1.422.11 3.391-1.422 3.391l-7.547.219V50.75a3.921 3.921 0 0 1-3.937 3.938zm-24.61-18.266v7.328h25.922v-4.922L35 34.344c-3.61 1.968-7.875-1.313-6.781-5.36.328-1.203 1.093-2.297 2.187-2.843l4.375-2.516 4.375-7.219V12.25H13.234v4.594h2.297a4.388 4.388 0 0 1 4.375 4.375v7.11c0 2.296-1.86 4.265-4.265 4.265l.765 3.281c.328 1.203-.984 2.078-1.968 1.422l-1.204-.875zm0 9.953v4.375c0 .656.547 1.313 1.313 1.313h23.297c.765 0 1.312-.657 1.312-1.313v-4.375H13.234zM39.156 35v-3.063l-1.86 1.094L39.157 35zm2.407-17.5-4.704 7.766c-.218.437-.984.765-1.53 1.093l2.077 3.61c1.64-.985 1.094-.766 3.063-.875l7.765-.11L41.562 17.5zm-2.407-7.875V5.25c0-.656-.547-1.313-1.312-1.313H14.547c-.766 0-1.313.657-1.313 1.313v4.375h25.922zm-5.14 40.906h-1.641c-1.75 0-1.75-2.625 0-2.625h1.64c1.75 0 1.75 2.625 0 2.625zm-14 0h-1.641c-1.75 0-1.75-2.625 0-2.625h1.64c1.75 0 1.75 2.625 0 2.625zm8.422-42.437h-4.485c-1.75 0-1.75-2.625 0-2.625h4.485c1.75 0 1.75 2.625 0 2.625zm21.875 13.344c-1.313 0-1.86-1.86-.657-2.516l1.969-1.094c1.422-.875 2.734 1.422 1.313 2.297-.766.438-2.079 1.313-2.626 1.313zm-2.407-3.172c-.875 0-1.422-.766-1.312-1.532l.437-3.062c.328-1.64 2.953-1.203 2.625.437l-.547 3.063c-.109.547-.656 1.094-1.203 1.094zm6.782 7.875c-.438 0-2.735-.875-3.282-1.094a1.294 1.294 0 0 1-.765-1.75c.218-.656.984-.985 1.64-.766l2.844 1.094c1.422.547.984 2.516-.438 2.516zM33.03 27.67c-.984.548-1.968.876-2.297 1.97-.437 1.859 1.532 3.28 3.063 2.406l1.312-.766-2.078-3.61zM4.375 19.47c-.984 0-1.75.765-1.75 1.75v7.11c0 .874.766 1.64 1.75 1.64h3.938c.328 0 .546.11.765.218l3.938 2.844c-.22-.984-.657-1.86-.11-2.515.547-.766 1.531-.547 2.625-.547.985 0 1.75-.766 1.75-1.64v-7.11c0-.985-.765-1.75-1.75-1.75H4.375zm8.313 4.265h-5.47c-1.64 0-1.64-2.625 0-2.625h5.47c1.64 0 1.64 2.625 0 2.625z"/>
    </mask>
    <path fill-rule="evenodd" clip-rule="evenodd" d="M12.688 28.328h-5.47c-1.64 0-1.64-2.625 0-2.625h5.47c1.64 0 1.64 2.625 0 2.625zm25.156 26.36H14.547a3.921 3.921 0 0 1-3.938-3.938V34.562l-2.734-1.968h-3.5C1.969 32.594 0 30.625 0 28.328v-7.11a4.388 4.388 0 0 1 4.375-4.374h6.234V5.25a3.921 3.921 0 0 1 3.938-3.938h23.297A3.921 3.921 0 0 1 41.78 5.25v9.188c.657.109 1.422.546 1.75 1.203l7.219 12.468c.766 1.422.11 3.391-1.422 3.391l-7.547.219V50.75a3.921 3.921 0 0 1-3.937 3.938zm-24.61-18.266v7.328h25.922v-4.922L35 34.344c-3.61 1.968-7.875-1.313-6.781-5.36.328-1.203 1.093-2.297 2.187-2.843l4.375-2.516 4.375-7.219V12.25H13.234v4.594h2.297a4.388 4.388 0 0 1 4.375 4.375v7.11c0 2.296-1.86 4.265-4.265 4.265l.765 3.281c.328 1.203-.984 2.078-1.968 1.422l-1.204-.875zm0 9.953v4.375c0 .656.547 1.313 1.313 1.313h23.297c.765 0 1.312-.657 1.312-1.313v-4.375H13.234zM39.156 35v-3.063l-1.86 1.094L39.157 35zm2.407-17.5-4.704 7.766c-.218.437-.984.765-1.53 1.093l2.077 3.61c1.64-.985 1.094-.766 3.063-.875l7.765-.11L41.562 17.5zm-2.407-7.875V5.25c0-.656-.547-1.313-1.312-1.313H14.547c-.766 0-1.313.657-1.313 1.313v4.375h25.922zm-5.14 40.906h-1.641c-1.75 0-1.75-2.625 0-2.625h1.64c1.75 0 1.75 2.625 0 2.625zm-14 0h-1.641c-1.75 0-1.75-2.625 0-2.625h1.64c1.75 0 1.75 2.625 0 2.625zm8.422-42.437h-4.485c-1.75 0-1.75-2.625 0-2.625h4.485c1.75 0 1.75 2.625 0 2.625zm21.875 13.344c-1.313 0-1.86-1.86-.657-2.516l1.969-1.094c1.422-.875 2.734 1.422 1.313 2.297-.766.438-2.079 1.313-2.626 1.313zm-2.407-3.172c-.875 0-1.422-.766-1.312-1.532l.437-3.062c.328-1.64 2.953-1.203 2.625.437l-.547 3.063c-.109.547-.656 1.094-1.203 1.094zm6.782 7.875c-.438 0-2.735-.875-3.282-1.094a1.294 1.294 0 0 1-.765-1.75c.218-.656.984-.985 1.64-.766l2.844 1.094c1.422.547.984 2.516-.438 2.516zM33.03 27.67c-.984.548-1.968.876-2.297 1.97-.437 1.859 1.532 3.28 3.063 2.406l1.312-.766-2.078-3.61zM4.375 19.47c-.984 0-1.75.765-1.75 1.75v7.11c0 .874.766 1.64 1.75 1.64h3.938c.328 0 .546.11.765.218l3.938 2.844c-.22-.984-.657-1.86-.11-2.515.547-.766 1.531-.547 2.625-.547.985 0 1.75-.766 1.75-1.64v-7.11c0-.985-.765-1.75-1.75-1.75H4.375zm8.313 4.265h-5.47c-1.64 0-1.64-2.625 0-2.625h5.47c1.64 0 1.64 2.625 0 2.625z" fill="#004498" stroke="#F6FAFF" stroke-width=".6" mask="url(#8akao66h8a)"/>
    <path opacity=".3" fill-rule="evenodd" clip-rule="evenodd" d="M15.531 16.844a4.388 4.388 0 0 1 4.375 4.375v7.11c0 2.296-1.86 4.265-4.265 4.265l.765 3.281c.328 1.203-.984 2.078-1.968 1.422l-1.204-.875v7.328h25.922v-4.922L35 34.344c-3.61 1.968-7.875-1.313-6.781-5.36.328-1.203 1.093-2.297 2.187-2.843l4.375-2.516 4.375-7.219V12.25H13.234v4.594h2.297z" fill="red"/>
    <path opacity=".3" fill-rule="evenodd" clip-rule="evenodd" d="m35.11 31.281-2.079-3.61c-.984.548-1.968.876-2.297 1.97-.437 1.859 1.532 3.28 3.063 2.406l1.312-.766zM17.28 28.328v-7.11c0-.984-.765-1.75-1.75-1.75H4.375c-.984 0-1.75.766-1.75 1.75v7.11c0 .875.766 1.64 1.75 1.64h3.938c.328 0 .546.11.765.22l3.938 2.843c-.22-.984-.657-1.86-.11-2.515.547-.766 1.531-.547 2.625-.547.985 0 1.75-.766 1.75-1.64zm-4.593-2.625c1.64 0 1.64 2.625 0 2.625h-5.47c-1.64 0-1.64-2.625 0-2.625h5.47zm0-1.969h-5.47c-1.64 0-1.64-2.625 0-2.625h5.47c1.64 0 1.64 2.625 0 2.625z" fill="red"/>
    <path opacity=".3" fill-rule="evenodd" clip-rule="evenodd" d="m39.156 31.938-1.86 1.093L39.157 35v-3.063z" fill="#004498"/>
</svg>
